X: 144116
M: C
L: 1/8
K: A
|:\
f>ga>f e>cA>c | B>AG>F E2E2 |\
f>ag>f e>dc>B | A2c2A2 H:|
|:\
a>fd>f e>cA>c | B>AG>F E2F>A |\
g>bg>e f>af>^d | e2g2"_D.C."e2 :|


